X: 61
T: The Spanish Dollars
R: jig
M: 6/8
L: 1/8
Z: 2012 John Chambers <jc:trillian.mit.edu>
B: Saml. Ann & Peter Thompson "Twenty Four Country Dances for the Year 1791", London 1791, p.31 #1
K: D
% - - - - - - - - - - - - - - - - - - - - - - - - -
A |\
d2d d2f | e2A A2A | B2G E2A | FEF D2A |\
d2d d2f | e2A A2A | B2G E2A | F3  D2 :|
|: a |\
f2d D2f | e2c [c2C2]e | d2B [B2B,2]d | cBc ABc |\
d2d d2f | e2A A2A | B2G E2A | F3 D2 :|
% - - - - - - - - Dance description - - - - - - - -
%%begintext align
%% Hey contray sides .|.
%% then on your own sides :|.
%% 1st 2d and 3d Cu: Promenade all round .|:
%% lead thro' the bottom & cast up lead thro' the top & cast off :|:
%%endtext

%%sep 1 1 500
%%sep 1 1 500
